X: 1
T: Golden Slippers - G
%O: from Viola Ruth
B: Lee Owens "Advanced Square Dance Figures of the West and Southwest" p.10=
9
R: reel
Z: 2010 John Chambers <jc:trillian.mit.edu>
M: 2/4
L: 1/16
K: G
(GA) |\
"G"B2B2 BAGA | B2B2 B2(GA) |\
B2B2 c2B2 | B2"D7"A2 A2(FG |\
A2)A2 AGFG |
|:"G"D6 (GA) | B2A2 GD3 |\
"C"[E6C6] (GA) | "D7"c2B2 AG3 |

